usr/share/icons/biglinux-icons-material/scalable/mimetypes/text-less.svg

<svg width="24" height="24" viewBox="0 0 24 24" fill="none" xmlns="http://www.w3.org/2000/svg">
<rect x="1" y="1" width="22" height="22" rx="6.6" fill="url(#paint0_radial_21_1294)"/>
<path d="M5.66616 15.6191C5.27279 15.5323 5.05319 15.3773 4.92771 15.0977C4.86881 14.9665 4.86132 14.874 4.84551 14.0816C4.82905 13.2536 4.82448 13.2023 4.75593 13.061C4.66631 12.8765 4.49253 12.7815 4.20111 12.7577L4 12.7414V11.9663L4.21094 11.9447C4.50061 11.915 4.67227 11.8259 4.75745 11.6609C4.8171 11.5455 4.82645 11.47 4.83459 11.0381C4.85702 9.85028 4.86441 9.72558 4.92015 9.59565C4.99287 9.42617 5.10955 9.30464 5.28853 9.21199C5.58146 9.06037 5.74861 9.03467 6.55347 9.01752L7.31006 9.00139L7.31913 11.1848C7.32787 13.2959 7.33022 13.3725 7.39066 13.4931C7.50212 13.7156 7.57905 13.7488 7.98359 13.7488H8.33745L8.35625 13.8879C8.36666 13.9645 8.37504 14.1092 8.37504 14.2096V14.3921L8.10266 14.4314C7.94958 14.4534 7.70662 14.463 7.54796 14.4533C7.04843 14.4226 6.74241 14.2507 6.57707 13.9079C6.42219 13.5867 6.40855 13.3922 6.40737 11.4869L6.40624 9.73229L6.24217 9.75436C6.00736 9.78596 5.88881 9.85156 5.82283 9.98638C5.7738 10.0866 5.76367 10.2132 5.75011 10.8954C5.73533 11.6366 5.72978 11.6974 5.66377 11.8333C5.5722 12.0218 5.49345 12.094 5.22044 12.2398L4.99595 12.3596L5.17766 12.4271C5.41107 12.5137 5.56941 12.648 5.66125 12.8372C5.73059 12.98 5.73518 13.0296 5.74999 13.7962C5.76687 14.67 5.77749 14.7277 5.94401 14.8527C5.99557 14.8914 6.09636 14.9219 6.20183 14.9308L6.44479 14.9454V15.6668L6.11722 15.6642C5.97543 15.6628 5.77244 15.6425 5.66616 15.6191ZM17.5559 15.3021V14.9375L17.7734 14.9375C17.9776 14.9374 18.1268 14.8548 18.2027 14.6997C18.2583 14.5863 18.2666 14.4876 18.281 13.7645C18.2961 13.0055 18.3015 12.948 18.3671 12.8232C18.4509 12.6636 18.5788 12.5599 18.8391 12.44L19.0335 12.3505L18.8546 12.2752C18.6416 12.1857 18.4583 12.0259 18.3653 11.8486C18.3024 11.7289 18.2964 11.6619 18.2812 10.9112C18.2663 10.1736 18.2593 10.0931 18.2014 9.99183C18.1266 9.86119 17.9794 9.77906 17.7734 9.75307L17.5558 9.73436V9L17.936 9.02174C18.6245 9.0611 18.9672 9.25285 19.1152 9.65055C19.1552 9.75781 19.1695 9.96942 19.1844 10.6735C19.2015 11.4857 19.2085 11.5706 19.2661 11.6721C19.3475 11.8153 19.5663 11.9264 19.8116 11.9489L20 11.9663V12.7413L19.7995 12.7576C19.5403 12.7788 19.3558 12.8807 19.2682 13.0512C19.2085 13.1676 19.2016 13.2493 19.1843 14.0498C19.1641 14.9861 19.148 15.0873 18.984 15.3054C18.8271 15.5141 18.3661 15.6651 17.8828 15.6661L17.5558 15.6667L17.5559 15.3021ZM9.87498 14.4753C9.83201 14.4676 9.71248 14.4462 9.60935 14.4277C9.35244 14.3817 8.9525 14.1801 8.77525 14.0073C8.45433 13.6943 8.27834 13.306 8.21655 12.7746C8.14675 12.1742 8.2719 11.5699 8.55225 11.1536C8.78817 10.8033 9.14775 10.5589 9.5562 10.4713C9.768 10.4258 10.2301 10.4255 10.4438 10.4708C10.8732 10.5616 11.2359 10.8431 11.4421 11.2453C11.6038 11.5607 11.6562 11.8112 11.6562 12.2686V12.655H9.09767L9.11313 12.7739C9.16396 13.163 9.25956 13.367 9.48553 13.5688C9.68083 13.7432 9.85195 13.7963 10.2192 13.7963C10.5626 13.7963 10.9051 13.7204 11.2053 13.5779L11.3951 13.4878L11.5201 14.1408L11.3126 14.2378C11.1985 14.2912 10.9954 14.3633 10.8613 14.3981C10.6278 14.4587 10.0389 14.5048 9.87498 14.4753ZM10.8047 11.878C10.7723 11.4676 10.5568 11.1837 10.2147 11.1004C9.68187 10.9707 9.23251 11.3249 9.1375 11.9495L9.11701 12.0842H10.821L10.8047 11.878ZM12.7896 14.4629C12.3264 14.4094 11.8303 14.2426 11.8563 14.1491C11.8642 14.1206 11.8877 13.9654 11.9085 13.8041C11.9294 13.6428 11.952 13.5108 11.9588 13.5108C11.9657 13.5108 12.0259 13.5391 12.0928 13.5737C12.4556 13.7615 13.1734 13.8782 13.4669 13.7971C13.7459 13.72 13.8995 13.4539 13.8019 13.2169C13.7378 13.0611 13.5948 12.9733 13.0252 12.7395C12.4842 12.5175 12.2827 12.3994 12.0982 12.1964C11.7853 11.852 11.8003 11.1455 12.1275 10.8135C12.4106 10.5263 12.7801 10.4224 13.4375 10.4449C13.8872 10.4604 14.1272 10.5067 14.4641 10.6435L14.5867 10.6933L14.4787 11C14.4193 11.1686 14.3678 11.3095 14.3643 11.313C14.3608 11.3165 14.2458 11.2791 14.1085 11.2298C13.3307 10.9506 12.7187 11.059 12.7187 11.476C12.7187 11.6725 12.8992 11.8005 13.4898 12.0228C14.1376 12.2667 14.4335 12.4658 14.5872 12.7614C14.6644 12.91 14.6719 12.9551 14.6719 13.2731C14.6719 13.5899 14.664 13.6381 14.5853 13.8006C14.4395 14.1019 14.1635 14.3162 13.7964 14.4132C13.5734 14.4721 13.0803 14.4964 12.7896 14.4629ZM15.7896 14.4629C15.4965 14.4291 15.2795 14.3764 15.0451 14.2824L14.8559 14.2065L14.9015 13.8666C14.9265 13.6796 14.9506 13.5221 14.9549 13.5165C14.9593 13.511 15.0193 13.5357 15.0885 13.5715C15.4532 13.7602 16.1718 13.8786 16.4635 13.798C16.6578 13.7443 16.8122 13.5903 16.8335 13.4288C16.8711 13.1448 16.7114 13.0096 16.0103 12.7315C15.1086 12.3738 14.8453 12.0754 14.8816 11.4528C14.9123 10.9273 15.1965 10.617 15.7732 10.4797C15.9351 10.4411 16.0901 10.433 16.4375 10.4449C16.8907 10.4603 17.0621 10.492 17.4133 10.6253L17.5913 10.6929L17.4823 10.9984C17.4224 11.1664 17.3702 11.3068 17.3664 11.3103C17.3625 11.3138 17.2177 11.2685 17.0445 11.2097C16.4948 11.0227 16.0532 11.0291 15.8347 11.2272C15.7501 11.3039 15.7344 11.3403 15.7344 11.46C15.7344 11.6976 15.8455 11.7768 16.5662 12.0527C17.4586 12.3944 17.7115 12.6845 17.6811 13.3318C17.664 13.6947 17.583 13.8969 17.3761 14.0933C17.2018 14.2587 17.037 14.3496 16.7964 14.4132C16.5734 14.4721 16.0803 14.4964 15.7896 14.4629Z" fill="#234DB8"/>
<defs>
<radialGradient id="paint0_radial_21_1294" cx="0" cy="0" r="1" gradientUnits="userSpaceOnUse" gradientTransform="translate(17.5 1) rotate(116.565) scale(24.5967)">
<stop stop-color="#F4F4F4"/>
<stop offset="1" stop-color="#BBBBBB"/>
</radialGradient>
</defs>
</svg>

<svg xmlns="http://www.w3.org/2000/svg" width="24" height="24" fill="none"><rect width="22" height="22" x="1" y="1" fill="url(#a)" rx="6.6"/><path fill="#234DB8" d="M5.666 15.62c-.393-.088-.613-.243-.738-.522-.06-.132-.067-.224-.082-1.016-.017-.828-.022-.88-.09-1.021-.09-.184-.263-.28-.555-.303L4 12.74v-.775l.21-.021c.29-.03.462-.12.547-.284.06-.115.07-.191.078-.623.022-1.188.03-1.312.085-1.442a.75.75 0 0 1 .369-.384c.292-.152.46-.177 1.264-.194L7.31 9l.01 2.184c.008 2.11.01 2.188.07 2.308.112.223.189.256.594.256h.353l.02.139c.01.076.018.221.018.322v.182l-.272.04a3.227 3.227 0 0 1-.555.021c-.5-.03-.806-.202-.97-.545-.156-.321-.17-.516-.17-2.421l-.002-1.755-.164.022c-.235.032-.353.098-.42.232-.048.1-.058.227-.072.91-.015.74-.02.801-.086.937-.092.189-.17.261-.444.407l-.224.12.182.067c.233.087.391.221.483.41.07.143.074.193.089.96.017.873.027.93.194 1.056.052.038.152.069.258.078l.243.014v.722l-.328-.003a2.69 2.69 0 0 1-.45-.045Zm11.89-.318v-.364h.217c.205 0 .354-.083.43-.238.055-.114.064-.212.078-.935.015-.76.02-.817.086-.942.084-.16.212-.263.472-.383l.195-.09-.18-.075a.994.994 0 0 1-.489-.426c-.063-.12-.069-.187-.084-.938-.015-.737-.022-.818-.08-.92-.074-.13-.222-.212-.428-.238l-.217-.019V9l.38.022c.689.04 1.031.23 1.18.629.04.107.053.318.068 1.023.017.812.024.897.082.998.082.143.3.254.546.277l.188.017v.775l-.2.017c-.26.02-.444.123-.532.293-.06.117-.066.198-.084.999-.02.936-.036 1.037-.2 1.255-.157.21-.618.36-1.101.361h-.327v-.364Zm-7.681-.827-.266-.047c-.257-.046-.656-.248-.834-.42-.32-.314-.497-.702-.558-1.233-.07-.6.055-1.205.335-1.621.236-.35.596-.595 1.004-.683a2.91 2.91 0 0 1 .888 0c.43.09.792.372.998.774.162.316.214.566.214 1.024v.386H9.098l.015.119c.051.389.147.593.373.795.195.174.366.227.733.227.344 0 .686-.076.986-.218l.19-.09.125.653-.207.097a3.16 3.16 0 0 1-.452.16c-.233.06-.822.107-.986.077Zm.93-2.597c-.033-.41-.248-.694-.59-.778-.533-.13-.982.225-1.078.85l-.02.134h1.704l-.016-.206Zm1.985 2.585c-.464-.054-.96-.22-.934-.314a5.24 5.24 0 0 0 .053-.345c.02-.161.043-.293.05-.293.007 0 .067.028.134.063.363.188 1.08.304 1.374.223.279-.077.432-.343.335-.58-.064-.156-.207-.244-.777-.478-.54-.222-.742-.34-.927-.543-.313-.344-.298-1.05.03-1.383.283-.287.652-.39 1.31-.368.45.015.69.062 1.026.198l.123.05-.108.307c-.06.169-.111.31-.115.313a2.297 2.297 0 0 1-.256-.083c-.777-.28-1.39-.171-1.39.246 0 .196.181.324.772.547.648.244.944.443 1.097.738.077.149.085.194.085.512 0 .317-.008.365-.087.528-.146.3-.421.515-.789.612-.223.06-.716.083-1.006.05Zm3 0a2.713 2.713 0 0 1-.745-.18l-.19-.076.046-.34c.026-.187.05-.345.054-.35a.439.439 0 0 1 .133.055c.365.188 1.084.307 1.376.226.194-.054.348-.208.37-.37.037-.283-.123-.418-.824-.697-.901-.357-1.165-.656-1.128-1.278.03-.526.315-.836.891-.973.162-.039.317-.047.665-.035.453.015.624.047.975.18l.178.068-.109.305c-.06.168-.112.309-.116.312a3.553 3.553 0 0 1-.322-.1c-.55-.187-.99-.18-1.21.017-.084.077-.1.113-.1.233 0 .238.111.317.832.593.893.341 1.146.631 1.115 1.279-.017.363-.098.565-.305.761-.174.166-.339.257-.58.32-.223.06-.716.083-1.006.05Z"/><defs><radialGradient id="a" cx="0" cy="0" r="1" gradientTransform="rotate(116.565 8.441 5.908) scale(24.5967)" gradientUnits="userSpaceOnUse"><stop stop-color="#F4F4F4"/><stop offset="1" stop-color="#BBB"/></radialGradient></defs></svg>
